static/assets/images/networks/aurora.svg

<svg width="256" height="256" viewBox="0 0 256 256" fill="none" xmlns="http://www.w3.org/2000/svg">
<path d="M128 256C198.692 256 256 198.692 256 128C256 57.3075 198.692 0 128 0C57.3076 0 0 57.3075 0 128C0 198.692 57.3076 256 128 256Z" fill="#6DD249"/>
<path d="M127.982 201.888H71.9944C54.7222 201.888 40.5353 189.598 38.205 172.527C37.1424 164.797 38.7806 157.573 42.6815 150.834C51.4947 135.609 60.2939 120.37 69.0792 105.116C78.9224 88.061 88.7679 71.0079 98.6157 53.9563C104.208 44.3042 112.57 38.3946 123.62 37.1455C138.277 35.4863 149.754 41.1723 157.316 53.9097C165.745 68.1059 173.861 82.4862 182.122 96.7872C192.531 114.808 202.939 132.835 213.348 150.867C216.65 156.58 218.272 162.7 218.1 169.309C217.685 185.134 205.369 199.136 189.766 201.429C187.81 201.717 185.837 201.864 183.86 201.87C165.234 201.902 146.607 201.909 127.982 201.888ZM127.982 180.932C146.569 180.932 165.156 180.932 183.744 180.932C186.156 180.932 188.442 180.513 190.565 179.324C196.174 176.19 199.348 168.423 195.179 161.262C182.674 139.791 170.303 118.238 157.88 96.7127C151.658 85.9358 145.437 75.1589 139.217 64.3821C136.586 59.831 132.599 57.5776 127.379 57.7897C122.532 57.9854 119.022 60.4509 116.608 64.6407C104.287 86.0484 91.9503 107.442 79.5981 128.822C73.3607 139.635 67.1194 150.445 60.8741 161.253C59.3478 163.886 58.5136 166.661 58.982 169.705C60.033 176.523 65.1969 180.925 72.1155 180.93C90.7362 180.938 109.359 180.938 127.984 180.932H127.982Z" fill="white"/>
</svg>

<svg xmlns="http://www.w3.org/2000/svg" fill="none" viewBox="0 0 256 256"><path fill="#6DD249" d="M128 256c70.692 0 128-57.308 128-128S198.692 0 128 0 0 57.308 0 128s57.308 128 128 128"/><path fill="#fff" d="M127.982 201.888H71.994c-17.272 0-31.459-12.29-33.789-29.361-1.063-7.73.576-14.954 4.477-21.693a24028 24028 0 0 0 26.397-45.718q14.765-25.582 29.537-51.16c5.592-9.652 13.954-15.561 25.004-16.81 14.657-1.66 26.134 4.026 33.696 16.764 8.429 14.196 16.545 28.576 24.806 42.877q15.613 27.032 31.226 54.08c3.302 5.713 4.924 11.833 4.752 18.442-.415 15.825-12.731 29.827-28.334 32.12a41.4 41.4 0 0 1-5.906.441q-27.94.049-55.878.018m0-20.956h55.762c2.412 0 4.698-.419 6.821-1.608 5.609-3.134 8.783-10.901 4.614-18.062-12.505-21.471-24.876-43.024-37.299-64.55l-18.663-32.33c-2.631-4.551-6.618-6.804-11.838-6.592-4.847.195-8.357 2.66-10.771 6.85a44773 44773 0 0 1-37.01 64.182 50040 50040 0 0 1-18.724 32.431c-1.526 2.633-2.36 5.408-1.892 8.452 1.051 6.818 6.215 11.22 13.133 11.225q27.932.012 55.869.002z"/></svg>
